trunk/WorldWind/resources/milstd2525/icons/ems/euoaak---------.svg

<?xml version="1.0" encoding="UTF-8" standalone="no"?>
<!--
Copyright (C) 2012 United States Government as represented by the Administrator of the
National Aeronautics and Space Administration.
All Rights Reserved.
-->

<!--
MIL-STD-2525 tactical symbol icon image. During icon composition this image is multiplied by the desired frame color 
(e.g. black), then drawn on top of the frame and fill.
-->

<svg
   xmlns:dc="http://purl.org/dc/elements/1.1/"
   xmlns:cc="http://creativecommons.org/ns#"
   xmlns:rdf="http://www.w3.org/1999/02/22-rdf-syntax-ns#"
   xmlns:svg="http://www.w3.org/2000/svg"
   xmlns="http://www.w3.org/2000/svg"
   xmlns:sodipodi="http://sodipodi.sourceforge.net/DTD/sodipodi-0.dtd"
   xmlns:inkscape="http://www.inkscape.org/namespaces/inkscape"
   height="400px"
   viewBox="0 0 400 400"
   width="400px"
   id="svg2"
   version="1.1"
   inkscape:version="0.48.2 r9819"
   sodipodi:docname="euoaak---------.svg">
  <metadata
     id="metadata36">
    <rdf:RDF>
      <cc:Work
         rdf:about="">
        <dc:format>image/svg+xml</dc:format>
        <dc:type
           rdf:resource="http://purl.org/dc/dcmitype/StillImage" />
      </cc:Work>
    </rdf:RDF>
  </metadata>
  <defs
     id="defs34" />
  <sodipodi:namedview
     pagecolor="#ffffff"
     bordercolor="#666666"
     borderopacity="1"
     objecttolerance="10"
     gridtolerance="10"
     guidetolerance="10"
     inkscape:pageopacity="0"
     inkscape:pageshadow="2"
     inkscape:window-width="640"
     inkscape:window-height="480"
     id="namedview32"
     showgrid="false"
     inkscape:zoom="0.59"
     inkscape:cx="200"
     inkscape:cy="200"
     inkscape:window-x="267"
     inkscape:window-y="162"
     inkscape:window-maximized="0"
     inkscape:current-layer="svg2" />
  <g
     transform="matrix(120,0,0,120,48.99996,51)"
     id="g4">
    <path
       inkscape:connector-curvature="0"
       d="m 1.17777,0.473972 c 0,0.013421 0.00461,0.150756 0.00587,0.154484 C 1.1907,0.649393 1.26176,0.682917 1.29772,0.678558 1.31694,0.676228 1.35071,0.6727 1.36986,0.670515 1.40642,0.66635 1.39562,0.658806 1.40062,0.616641 1.40547,0.575676 1.41373,0.512739 1.42276,0.473972 1.41453,0.458425 1.37093,0.375976 1.35594,0.375976 l -0.1069,0 c -0.01427,0 -0.06146,0.083346 -0.07127,0.097996 z"
       style="fill:#000000;stroke:#000000;stroke-width:0.05;stroke-miterlimit:4;stroke-opacity:1;stroke-dasharray:0.1, 0.05;stroke-dashoffset:0"
       id="path6" />
    <path
       inkscape:connector-curvature="0"
       d="M 0.955118,0.638791 1.00818,0.744228 1.08868,0.727866 C 1.09046,0.706507 1.10205,0.675303 1.10205,0.656594 c 0,-0.046496 -0.02227,-0.09739 -0.02227,-0.142535 l -0.098064,-1.2e-5 z"
       style="fill:#000000;stroke:#000000;stroke-width:0.05;stroke-miterlimit:4;stroke-opacity:1;stroke-dasharray:0.1, 0.05;stroke-dashoffset:0"
       id="path8" />
    <path
       inkscape:connector-curvature="0"
       d="m 0.796555,0.697531 c 0.039854,0.086083 0.00913,0.07826 0.087047,0.145835 l 0.049181,-0.026413 0,-0.080181 C 0.932783,0.7055 0.909043,0.661307 0.90598,0.625953 L 0.865968,0.62096 0.831374,0.621437 z"
       style="fill:#000000;stroke:#000000;stroke-width:0.05;stroke-miterlimit:4;stroke-opacity:1;stroke-dasharray:0.1, 0.05;stroke-dashoffset:0"
       id="path10" />
    <path
       inkscape:connector-curvature="0"
       d="m 0.674437,0.772409 c 0,0.018606 0.042055,0.094846 0.044539,0.12472 0.007174,0.001669 0.022158,0.008906 0.022272,0.008906 0.007118,0 0.043512,-0.018918 0.057906,-0.022272 C 0.78411,0.819196 0.763118,0.747027 0.710071,0.718956 0.706083,0.733877 0.674437,0.767346 0.674437,0.772409 z"
       style="fill:#000000;stroke:#000000;stroke-width:0.05;stroke-miterlimit:4;stroke-opacity:1;stroke-dasharray:0.1, 0.05;stroke-dashoffset:0"
       id="path12" />
    <path
       inkscape:connector-curvature="0"
       d="m 1.43544,0.634177 c 0.0168,0.008677 0.04967,0.015583 0.04967,0.040236 0,0.017772 -0.00967,0.028697 -0.01328,0.04411 L 1.4183,0.710047 C 1.39863,0.706582 1.33031,0.723409 1.29803,0.723409 l 0,0.022272 c 0,0.022346 0.08326,0 0.11582,0 l 0.0089,0 c 0.03495,0 0.11213,0.026287 0.12916,0.040106 C 1.56331,0.795035 1.58142,0.89285 1.59202,0.914944 1.62889,0.897251 1.6197,0.905157 1.60455,0.84896 1.59937,0.829747 1.58359,0.784995 1.58244,0.765086 L 1.5004,0.731149 1.5252,0.683322 C 1.50227,0.639984 1.50838,0.60911 1.44125,0.607747 z"
       style="fill:#000000;stroke:#000000;stroke-width:0.05;stroke-miterlimit:4;stroke-opacity:1;stroke-dasharray:0.1, 0.05;stroke-dashoffset:0"
       id="path14" />
    <path
       inkscape:connector-curvature="0"
       d="m 0.554169,0.870402 c 0,0.030847 0.06687,0.092028 0.088161,0.106 L 0.67387,0.941933 0.629893,0.843678 l -0.044543,0 c -0.009866,0 -0.031181,0.022618 -0.031181,0.026724 z"
       style="fill:#000000;stroke:#000000;stroke-width:0.05;stroke-miterlimit:4;stroke-opacity:1;stroke-dasharray:0.1, 0.05;stroke-dashoffset:0"
       id="path16" />
    <path
       inkscape:connector-curvature="0"
       d="m 1.58756,1.14211 0.02227,0 c 0.02513,0 0.05345,-0.02704 0.05345,-0.05345 l 0,-0.00891 c 0,-0.02991 -0.03347,-0.05345 -0.06235,-0.05345 -0.09188,0 -0.07641,0.11581 -0.01337,0.11581 z"
       style="fill:#000000"
       id="path18" />
    <path
       inkscape:connector-curvature="0"
       d="M 1.36485,1.29356 1.37452,1.32262 1.49207,1.28277 1.59635,1.35946 1.76204,1.33797 1.75699,1.30357 1.60538,1.32474 C 1.58844,1.31339 1.50811,1.24902 1.49402,1.24902 c -0.01117,0 -0.11663,0.03852 -0.12917,0.04454 z"
       style="fill:#000000"
       id="path20" />
    <path
       inkscape:connector-curvature="0"
       d="M 1.3693,1.46282 1.37376,1.494 C 1.43859,1.47889 1.49004,1.46421 1.55531,1.47725 1.5831,1.48281 1.61345,1.48876 1.64363,1.49584 1.69553,1.50801 1.70202,1.52021 1.71228,1.47619 1.68428,1.47556 1.57046,1.44856 1.53856,1.44055 1.48664,1.4275 1.4243,1.45001 1.3693,1.46282 z"
       style="fill:#000000"
       id="path22" />
    <path
       inkscape:connector-curvature="0"
       d="m 1.33817,1.63303 -4e-5,-0.02767 c 0.04348,-9.7e-4 0.14893,-0.02016 0.18088,-0.0072 0.02073,0.00842 0.1359,0.0562 0.14873,0.0562 l 0.05346,0 0,0.03118 -0.06236,0 c -0.03302,0 -0.12258,-0.05791 -0.16926,-0.05791 L 1.48507,1.62655 z M 1.36931,1.46282 C 1.4243,1.45001 1.48665,1.4275 1.53857,1.44055 1.57047,1.44857 1.68428,1.47556 1.71229,1.47619 1.70203,1.52021 1.69554,1.50801 1.64364,1.49584 1.61346,1.48877 1.58311,1.48281 1.55532,1.47725 1.49005,1.46421 1.4386,1.4789 1.37377,1.494 z M 1.36486,1.29356 C 1.37739,1.28755 1.48285,1.24902 1.49403,1.24902 c 0.01408,0 0.09441,0.06438 0.11136,0.07572 L 1.757,1.30357 1.76205,1.33797 1.59636,1.35946 1.49208,1.28277 1.37453,1.32262 z M 1.58757,1.14211 c -0.06304,0 -0.07851,-0.11581 0.01336,-0.11581 0.02889,0 0.06236,0.02354 0.06236,0.05345 l 0,0.00891 c 0,0.02641 -0.02832,0.05345 -0.05345,0.05345 z M 1.2535,1.78799 1.81028,1.83253 C 1.81028,1.74777 1.82211,1.66299 1.82807,1.5786 1.83308,1.50764 1.83883,1.39571 1.84943,1.32825 1.86826,1.20834 1.84408,1.19156 1.7891,1.12766 1.77065,1.10623 1.67224,0.989702 1.66774,0.972848 l -0.10244,0 C 1.55387,0.972848 1.55453,0.971777 1.54748,0.968396 1.50472,0.997033 1.44256,1.05995 1.39934,1.09642 1.37354,1.1182 1.3487,1.13634 1.32361,1.15878 1.30637,1.1742 1.29859,1.17451 1.29785,1.20429 1.29715,1.23259 1.29343,1.24724 1.29352,1.27123 1.29419,1.43795 1.2535,1.62032 1.2535,1.78799 z"
       style="fill:#ffffff"
       id="path24" />
    <path
       inkscape:connector-curvature="0"
       d="m 1.48507,1.62656 0.0045,0.00108 c 0.04669,0 0.13625,0.0579 0.16927,0.0579 l 0.06236,0 0,-0.03118 -0.05346,0 C 1.6549,1.65436 1.53974,1.60658 1.51901,1.59817 1.48706,1.5852 1.38161,1.6044 1.33813,1.60537 l 4e-5,0.02767 z"
       style="fill:#000000"
       id="path26" />
    <path
       inkscape:connector-curvature="0"
       d="m 1.25349,1.78799 c 0,-0.16766 0.04069,-0.35003 0.04003,-0.51676 C 1.29342,1.24725 1.29715,1.23259 1.29784,1.20429 1.29858,1.17451 1.30637,1.1742 1.32361,1.15878 1.34869,1.13634 1.37353,1.11821 1.39933,1.09643 1.44255,1.05996 1.50471,0.997037 1.54747,0.968399 1.55453,0.971781 1.55387,0.972852 1.56529,0.972852 l 0.10245,0 C 1.67224,0.989706 1.77065,1.10623 1.78909,1.12767 1.84407,1.19156 1.86825,1.20834 1.84942,1.32825 1.83882,1.39572 1.83308,1.50764 1.82807,1.57861 1.8221,1.663 1.81028,1.74778 1.81028,1.83253 z M 1.21786,1.81471 1.83867,1.85939 1.89031,1.20459 1.68551,0.942691 1.53411,0.937218 C 1.52908,0.937006 1.39099,1.05942 1.37198,1.07353 1.34308,1.09497 1.31997,1.11967 1.29179,1.14033 1.25661,1.16614 1.26629,1.20777 1.26243,1.26241 1.25017,1.43597 1.21786,1.64034 1.21786,1.81471 z"
       style="fill:#000000;stroke:#000000;stroke-width:0.05;stroke-miterlimit:4;stroke-opacity:1;stroke-dasharray:0.1, 0.05;stroke-dashoffset:0"
       id="path28" />
    <path
       inkscape:connector-curvature="0"
       d="M 0.674437,1.03521 C 0.682929,1.13728 0.721894,1.26989 0.744783,1.36129 0.774433,1.47969 0.816661,1.54181 0.873099,1.63386 0.918673,1.70819 0.94441,1.8334 0.989158,1.91424 1.00387,1.94082 1.04746,2.0242 1.06556,2.03827 1.07593,2.04633 1.18093,2.12206 1.18222,2.12206 1.2149,2.12206 1.38393,2.11426 1.39863,2.10684 1.40557,2.10334 1.48511,1.96982 1.48511,1.9617 l 0,-0.06236 -0.1648,0 c -0.05694,0 -0.11679,-0.02672 -0.17372,-0.02672 l 0,-0.3608 C 1.14659,1.46036 1.1732,1.1516 1.19008,1.1366 1.20741,1.12121 1.42695,0.966386 1.43798,0.963729 L 1.4183,0.785768 C 1.40767,0.790871 1.30126,0.807481 1.29176,0.805481 1.27146,0.801209 1.19403,0.775753 1.17777,0.76795 1.13872,0.788615 1.08542,0.80428 1.04136,0.823072 1.00702,0.837717 0.968911,0.880414 0.926914,0.900162 0.876851,0.923709 0.845808,0.935938 0.787583,0.952367 0.755355,0.961461 0.738835,0.960205 0.720119,0.982898 0.705835,1.00022 0.684209,1.02061 0.674437,1.03521 z"
       style="fill:#000000;stroke:#000000;stroke-width:0.05;stroke-miterlimit:4;stroke-opacity:1;stroke-dasharray:0.1, 0.05;stroke-dashoffset:0"
       id="path30" />
  </g>
</svg>

<?xml version="1.0"?>
<!--
Copyright (C) 2012 United States Government as represented by the Administrator of the
National Aeronautics and Space Administration.
All Rights Reserved.
-->

<!DOCTYPE svg PUBLIC "-//W3C//DTD SVG 1.1//EN" "http://www.w3.org/Graphics/SVG/1.1/DTD/svg11.dtd" >
<!--
MIL-STD-2525 tactical symbol icon image. During icon composition this image is multiplied by the desired frame color 
(e.g. black), then drawn on top of the frame and fill.
-->
<svg xmlns:xlink="http://www.w3.org/1999/xlink" height="400px" viewBox="0 0 400 400" width="400px"><g transform="scale(120) translate(0.408333 0.425)"><path d="M1.17777 0.473972 C1.17777 0.487393 1.18238 0.624728 1.18364 0.628456 C1.1907 0.649393     1.26176 0.682917 1.29772 0.678558 C1.31694 0.676228 1.35071 0.6727 1.36986     0.670515 C1.40642 0.66635 1.39562 0.658806 1.40062 0.616641 C1.40547 0.575676     1.41373 0.512739 1.42276 0.473972 C1.41453 0.458425 1.37093 0.375976     1.35594 0.375976 L1.24904 0.375976 C1.23477 0.375976 1.18758 0.459322 1.17777     0.473972 z" style="fill:rgb(0,0,0)"/><path d="M0.955118 0.638791 L1.00818 0.744228 L1.08868 0.727866 C1.09046 0.706507 1.10205     0.675303 1.10205 0.656594 C1.10205 0.610098 1.07978 0.559204 1.07978 0.514059     L0.981716 0.514047 z" style="fill:rgb(0,0,0)"/><path d="M0.796555 0.697531 C0.836409 0.783614 0.805685 0.775791 0.883602 0.843366 L0.932783     0.816953 L0.932783 0.736772 C0.932783 0.7055 0.909043 0.661307 0.90598 0.625953     L0.865968 0.62096 L0.831374 0.621437 z" style="fill:rgb(0,0,0)"/><path d="M0.674437 0.772409 C0.674437 0.791015 0.716492 0.867255 0.718976 0.897129 C0.72615     0.898798 0.741134 0.906035 0.741248 0.906035 C0.748366 0.906035 0.78476 0.887117     0.799154 0.883763 C0.78411 0.819196 0.763118 0.747027 0.710071 0.718956     C0.706083 0.733877 0.674437 0.767346 0.674437 0.772409 z" style="fill:rgb(0,0,0)"/><path d="M1.43544 0.634177 C1.45224 0.642854 1.48511 0.64976 1.48511 0.674413 C1.48511 0.692185     1.47544 0.70311 1.47183 0.718523 L1.4183 0.710047 C1.39863 0.706582 1.33031     0.723409 1.29803 0.723409 L1.29803 0.745681 C1.29803 0.768027 1.38129     0.745681 1.41385 0.745681 L1.42275 0.745681 C1.4577 0.745681 1.53488 0.771968     1.55191 0.785787 C1.56331 0.795035 1.58142 0.89285 1.59202 0.914944 C1.62889     0.897251 1.6197 0.905157 1.60455 0.84896 C1.59937 0.829747 1.58359 0.784995     1.58244 0.765086 L1.5004 0.731149 L1.5252 0.683322 C1.50227 0.639984 1.50838     0.60911 1.44125 0.607747 z" style="fill:rgb(0,0,0)"/><path d="M0.554169 0.870402 C0.554169 0.901249 0.621039 0.96243 0.64233 0.976402 L0.67387     0.941933 L0.629893 0.843678 L0.58535 0.843678 C0.575484 0.843678 0.554169 0.866296     0.554169 0.870402 z" style="fill:rgb(0,0,0)"/><path d="M1.58756 1.14211 L1.60983 1.14211 C1.63496 1.14211 1.66328 1.11507 1.66328 1.08866     L1.66328 1.07975 C1.66328 1.04984 1.62981 1.0263 1.60093 1.0263 C1.50905 1.0263     1.52452 1.14211 1.58756 1.14211 z" style="fill:rgb(0,0,0)"/><path d="M1.36485 1.29356 L1.37452 1.32262 L1.49207 1.28277 L1.59635 1.35946 L1.76204 1.33797     L1.75699 1.30357 L1.60538 1.32474 C1.58844 1.31339 1.50811 1.24902 1.49402     1.24902 C1.48285 1.24902 1.37739 1.28754 1.36485 1.29356 z" style="fill:rgb(0,0,0)"/><path d="M1.3693 1.46282 L1.37376 1.494 C1.43859 1.47889 1.49004 1.46421 1.55531 1.47725 C1.5831     1.48281 1.61345 1.48876 1.64363 1.49584 C1.69553 1.50801 1.70202 1.52021     1.71228 1.47619 C1.68428 1.47556 1.57046 1.44856 1.53856 1.44055 C1.48664     1.4275 1.4243 1.45001 1.3693 1.46282 z" style="fill:rgb(0,0,0)"/><path d="M1.33817 1.63303 L1.33813 1.60536 C1.38161 1.60439 1.48706 1.5852 1.51901 1.59816     C1.53974 1.60658 1.65491 1.65436 1.66774 1.65436 L1.7212 1.65436 L1.7212 1.68554     L1.65884 1.68554 C1.62582 1.68554 1.53626 1.62763 1.48958 1.62763 L1.48507     1.62655 zM1.36931 1.46282 C1.4243 1.45001 1.48665 1.4275 1.53857 1.44055     C1.57047 1.44857 1.68428 1.47556 1.71229 1.47619 C1.70203 1.52021 1.69554     1.50801 1.64364 1.49584 C1.61346 1.48877 1.58311 1.48281 1.55532 1.47725 C1.49005     1.46421 1.4386 1.4789 1.37377 1.494 zM1.36486 1.29356 C1.37739 1.28755     1.48285 1.24902 1.49403 1.24902 C1.50811 1.24902 1.58844 1.3134 1.60539 1.32474     L1.757 1.30357 L1.76205 1.33797 L1.59636 1.35946 L1.49208 1.28277 L1.37453     1.32262 zM1.58757 1.14211 C1.52453 1.14211 1.50906 1.0263 1.60093 1.0263     C1.62982 1.0263 1.66329 1.04984 1.66329 1.07975 L1.66329 1.08866 C1.66329 1.11507     1.63497 1.14211 1.60984 1.14211 zM1.2535 1.78799 L1.81028 1.83253 C1.81028     1.74777 1.82211 1.66299 1.82807 1.5786 C1.83308 1.50764 1.83883 1.39571     1.84943 1.32825 C1.86826 1.20834 1.84408 1.19156 1.7891 1.12766 C1.77065 1.10623     1.67224 0.989702 1.66774 0.972848 L1.5653 0.972848 C1.55387 0.972848     1.55453 0.971777 1.54748 0.968396 C1.50472 0.997033 1.44256 1.05995 1.39934     1.09642 C1.37354 1.1182 1.3487 1.13634 1.32361 1.15878 C1.30637 1.1742 1.29859     1.17451 1.29785 1.20429 C1.29715 1.23259 1.29343 1.24724 1.29352 1.27123     C1.29419 1.43795 1.2535 1.62032 1.2535 1.78799 z" style="fill:rgb(255,255,255)"/><path d="M1.48507 1.62656 L1.48957 1.62764 C1.53626 1.62764 1.62582 1.68554 1.65884 1.68554     L1.7212 1.68554 L1.7212 1.65436 L1.66774 1.65436 C1.6549 1.65436 1.53974 1.60658     1.51901 1.59817 C1.48706 1.5852 1.38161 1.6044 1.33813 1.60537 L1.33817     1.63304 z" style="fill:rgb(0,0,0)"/><path d="M1.25349 1.78799 C1.25349 1.62033 1.29418 1.43796 1.29352 1.27123 C1.29342 1.24725     1.29715 1.23259 1.29784 1.20429 C1.29858 1.17451 1.30637 1.1742 1.32361 1.15878     C1.34869 1.13634 1.37353 1.11821 1.39933 1.09643 C1.44255 1.05996 1.50471     0.997037 1.54747 0.968399 C1.55453 0.971781 1.55387 0.972852 1.56529 0.972852     L1.66774 0.972852 C1.67224 0.989706 1.77065 1.10623 1.78909 1.12767 C1.84407     1.19156 1.86825 1.20834 1.84942 1.32825 C1.83882 1.39572 1.83308 1.50764     1.82807 1.57861 C1.8221 1.663 1.81028 1.74778 1.81028 1.83253 zM1.21786     1.81471 L1.83867 1.85939 L1.89031 1.20459 L1.68551 0.942691 L1.53411 0.937218     C1.52908 0.937006 1.39099 1.05942 1.37198 1.07353 C1.34308 1.09497 1.31997     1.11967 1.29179 1.14033 C1.25661 1.16614 1.26629 1.20777 1.26243 1.26241 C1.25017     1.43597 1.21786 1.64034 1.21786 1.81471 z" style="fill:rgb(0,0,0)"/><path d="M0.674437 1.03521 C0.682929 1.13728 0.721894 1.26989 0.744783 1.36129 C0.774433 1.47969     0.816661 1.54181 0.873099 1.63386 C0.918673 1.70819 0.94441 1.8334 0.989158     1.91424 C1.00387 1.94082 1.04746 2.0242 1.06556 2.03827 C1.07593 2.04633     1.18093 2.12206 1.18222 2.12206 C1.2149 2.12206 1.38393 2.11426 1.39863     2.10684 C1.40557 2.10334 1.48511 1.96982 1.48511 1.9617 L1.48511 1.89934 L1.32031     1.89934 C1.26337 1.89934 1.20352 1.87262 1.14659 1.87262 L1.14659 1.51182     C1.14659 1.46036 1.1732 1.1516 1.19008 1.1366 C1.20741 1.12121 1.42695 0.966386     1.43798 0.963729 L1.4183 0.785768 C1.40767 0.790871 1.30126 0.807481     1.29176 0.805481 C1.27146 0.801209 1.19403 0.775753 1.17777 0.76795 C1.13872     0.788615 1.08542 0.80428 1.04136 0.823072 C1.00702 0.837717 0.968911 0.880414     0.926914 0.900162 C0.876851 0.923709 0.845808 0.935938 0.787583 0.952367     C0.755355 0.961461 0.738835 0.960205 0.720119 0.982898 C0.705835 1.00022 0.684209     1.02061 0.674437 1.03521 z" style="fill:rgb(0,0,0)"/></g></svg>
